docs/img/telegram.svg

<svg width="18" height="14" viewBox="0 0 18 14" fill="none" xmlns="http://www.w3.org/2000/svg">
<path d="M16.2208 0.0975332L1.44583 5.79503C0.437498 6.20003 0.443331 6.76253 1.26083 7.01337L5.05416 8.1967L13.8308 2.6592C14.2458 2.4067 14.625 2.54253 14.3133 2.8192L7.2025 9.2367H7.20083L7.2025 9.23753L6.94083 13.1475C7.32416 13.1475 7.49333 12.9717 7.70833 12.7642L9.55083 10.9725L13.3833 13.8034C14.09 14.1925 14.5975 13.9925 14.7733 13.1492L17.2892 1.29253C17.5467 0.260033 16.895 -0.207467 16.2208 0.0975332Z" fill="#E4E5EA"/>
</svg>

<svg width="18" height="14" fill="none" xmlns="http://www.w3.org/2000/svg"><path d="M16.22.098L1.447 5.795C.437 6.2.443 6.763 1.26 7.013l3.793 1.184 8.777-5.538c.415-.252.794-.116.482.16l-7.11 6.418H7.2h.002l-.262 3.91c.383 0 .552-.175.767-.383l1.843-1.791 3.832 2.83c.707.39 1.215.19 1.39-.654L17.29 1.293c.258-1.033-.394-1.5-1.068-1.195z" fill="#E4E5EA"/></svg>
